apps/32/internet-chat.svg

<?xml version="1.0" encoding="UTF-8" standalone="no"?>
<svg
   xmlns:dc="http://purl.org/dc/elements/1.1/"
   xmlns:cc="http://creativecommons.org/ns#"
   xmlns:rdf="http://www.w3.org/1999/02/22-rdf-syntax-ns#"
   xmlns:svg="http://www.w3.org/2000/svg"
   xmlns="http://www.w3.org/2000/svg"
   xmlns:xlink="http://www.w3.org/1999/xlink"
   xmlns:sodipodi="http://sodipodi.sourceforge.net/DTD/sodipodi-0.dtd"
   xmlns:inkscape="http://www.inkscape.org/namespaces/inkscape"
   version="1.1"
   width="32"
   height="32"
   id="svg6955"
   inkscape:version="0.91 r13725"
   sodipodi:docname="internet-chat.svg">
  <sodipodi:namedview
     pagecolor="#ffffff"
     bordercolor="#666666"
     borderopacity="1"
     objecttolerance="10"
     gridtolerance="10"
     guidetolerance="10"
     inkscape:pageopacity="0"
     inkscape:pageshadow="2"
     inkscape:window-width="640"
     inkscape:window-height="480"
     id="namedview1174" />
  <defs
     id="defs6957">
    <linearGradient
       id="linearGradient4566">
      <stop
         style="stop-color:#000000;stop-opacity:1;"
         offset="0"
         id="stop4568" />
      <stop
         style="stop-color:#000000;stop-opacity:0;"
         offset="1"
         id="stop4570" />
    </linearGradient>
    <linearGradient
       id="linearGradient4223">
      <stop
         offset="0"
         style="stop-color:#cdf87e;stop-opacity:1"
         id="stop4225" />
      <stop
         offset="0.26238"
         style="stop-color:#a2e34f;stop-opacity:1"
         id="stop4227" />
      <stop
         offset="0.66093999"
         style="stop-color:#68b723;stop-opacity:1"
         id="stop4229" />
      <stop
         offset="1"
         style="stop-color:#1d7e0d;stop-opacity:1"
         id="stop4231" />
    </linearGradient>
    <linearGradient
       id="linearGradient4546">
      <stop
         offset="0"
         style="stop-color:#ffffff;stop-opacity:1"
         id="stop4548" />
      <stop
         offset="0.33333334"
         style="stop-color:#ffffff;stop-opacity:0.23529412"
         id="stop4550" />
      <stop
         offset="0.95056331"
         style="stop-color:#ffffff;stop-opacity:0.15686275"
         id="stop4552" />
      <stop
         offset="1"
         style="stop-color:#ffffff;stop-opacity:0.39215687"
         id="stop4554" />
    </linearGradient>
    <radialGradient
       xlink:href="#linearGradient4566"
       id="radialGradient4572"
       cx="26"
       cy="38"
       fx="26"
       fy="38"
       r="18"
       gradientTransform="matrix(1,0,0,0.33333333,0,25.333333)"
       gradientUnits="userSpaceOnUse" />
    <linearGradient
       id="linearGradient4129">
      <stop
         offset="0"
         style="stop-color:#90dbec;stop-opacity:1"
         id="stop4131" />
      <stop
         offset="0.26238"
         style="stop-color:#42baea;stop-opacity:1"
         id="stop4133" />
      <stop
         offset="0.704952"
         style="stop-color:#3689e6;stop-opacity:1"
         id="stop4135" />
      <stop
         offset="1"
         style="stop-color:#2b63a0;stop-opacity:1"
         id="stop4137" />
    </linearGradient>
    <radialGradient
       xlink:href="#linearGradient4129"
       id="radialGradient3835"
       cx="18"
       cy="9.1875"
       fx="18"
       fy="9.1875"
       r="13.5"
       gradientTransform="matrix(-4.0740741,0.07407405,-0.07271523,-3.999339,92.001406,49.410594)"
       gradientUnits="userSpaceOnUse" />
    <clipPath
       clipPathUnits="userSpaceOnUse"
       id="clipPath3858">
      <path
         style="fill:#8c8c8c;fill-opacity:1;stroke:none"
         d="m 11,14 c -3.3326486,0 -6,2.667351 -6,6 l 0,2 c 0,3.332649 2.6673514,6 6,6 l 13,0 c 0.259481,0 0.513076,-0.0276 0.78125,-0.0625 L 25.0625,27.90625 25.25,28.125 c 1.056448,1.365618 2.962771,1.79377 4.5,0.90625 0.09957,-0.05749 0.18882,-0.14629 0.28125,-0.21875 C 29.317927,28.296324 28.600709,27.729911 28.0625,27 l -0.25,-0.34375 0.3125,-0.3125 C 29.277198,25.25082 30,23.722169 30,22 l 0,-2 c 0,-3.332649 -2.667351,-6 -6,-6 l -13,0 z"
         id="path3860" />
    </clipPath>
    <linearGradient
       xlink:href="#linearGradient4546"
       id="linearGradient3868"
       x1="18"
       y1="14"
       x2="18"
       y2="28"
       gradientUnits="userSpaceOnUse" />
    <radialGradient
       xlink:href="#linearGradient4223"
       id="radialGradient3872"
       gradientUnits="userSpaceOnUse"
       gradientTransform="matrix(4.0740741,0.07407405,0.07271523,-3.999339,-60.001156,38.410594)"
       cx="18"
       cy="9.1875"
       fx="18"
       fy="9.1875"
       r="13.5" />
    <linearGradient
       xlink:href="#linearGradient4546"
       id="linearGradient3876"
       gradientUnits="userSpaceOnUse"
       x1="18"
       y1="14"
       x2="18"
       y2="28" />
  </defs>
  <metadata
     id="metadata6960">
    <rdf:RDF>
      <cc:Work
         rdf:about="">
        <dc:format>image/svg+xml</dc:format>
        <dc:type
           rdf:resource="http://purl.org/dc/dcmitype/StillImage" />
        <dc:title />
      </cc:Work>
    </rdf:RDF>
  </metadata>
  <path
     id="path3870"
     d="m 21.00025,2.5 c 3.601,0 6.5,2.899 6.5,6.5 l 0,2 c 0,3.601 -2.899,6.5 -6.5,6.5 l -13,0 C 7.71067,17.5 7.435858,17.47385 7.1565,17.4375 5.950917,18.995898 3.753989,19.481272 2.00025,18.46875 1.700648,18.295774 1.454989,18.075336 1.219,17.84375 2.098632,17.311485 2.893744,16.583665 3.5315,15.71875 2.284423,14.535821 1.50025,12.862512 1.50025,11 l 0,-2 c 0,-3.601 2.899,-6.5 6.5,-6.5 l 13,0 z"
     style="fill:url(#radialGradient3872);fill-opacity:1;stroke:#067d00;stroke-width:1;stroke-opacity:0.49803922" />
  <path
     clip-path="url(#clipPath3858)"
     style="fill:none;stroke:url(#linearGradient3876);stroke-width:2;stroke-miterlimit:4;stroke-opacity:0.49803922;stroke-dasharray:none"
     d="m 11,14 c -3.3326486,0 -6,2.667351 -6,6 l 0,2 c 0,3.332649 2.6673514,6 6,6 l 13,0 c 0.259481,0 0.513076,-0.0276 0.78125,-0.0625 L 25.0625,27.90625 25.25,28.125 c 1.056448,1.365618 2.962771,1.79377 4.5,0.90625 0.09957,-0.05749 0.18882,-0.14629 0.28125,-0.21875 C 29.317927,28.296324 28.600709,27.729911 28.0625,27 l -0.25,-0.34375 0.3125,-0.3125 C 29.277198,25.25082 30,23.722169 30,22 l 0,-2 c 0,-3.332649 -2.667351,-6 -6,-6 l -13,0 z"
     id="path3874"
     transform="matrix(-1,0,0,1,32,-11)" />
  <path
     style="opacity:0.2;fill:url(#radialGradient4572);fill-opacity:1;stroke:none"
     id="path4564"
     d="M 44,38 A 18,6 0 1 1 8,38 18,6 0 1 1 44,38 z"
     transform="matrix(0.72222222,0,0,0.66666667,-0.77777776,2.6666665)" />
  <path
     style="fill:url(#radialGradient3835);fill-opacity:1;stroke:#00537d;stroke-width:1;stroke-opacity:0.49803922000000000"
     d="M 11 13.5 C 7.399 13.5 4.5 16.399 4.5 20 L 4.5 22 C 4.5 25.601 7.399 28.5 11 28.5 L 24 28.5 C 24.28958 28.5 24.564392 28.473852 24.84375 28.4375 C 26.049333 29.995898 28.246261 30.481272 30 29.46875 C 30.299602 29.295774 30.545261 29.075336 30.78125 28.84375 C 29.901618 28.311485 29.106506 27.583665 28.46875 26.71875 C 29.715827 25.535821 30.5 23.862512 30.5 22 L 30.5 20 C 30.5 16.399 27.601 13.5 24 13.5 L 11 13.5 z "
     id="rect3059" />
  <g
     id="g3878">
    <path
       style="opacity:0.4;fill:#ffffff;fill-opacity:0.49803922;stroke:none"
       d="m 9,24 0,2 2,0 0,-2 -2,0 z m 3,0 0,2 2,0 0,-2 -2,0 z m 3,0 0,2 2,0 0,-2 -2,0 z"
       id="path3963" />
    <path
       id="rect3956"
       d="m 9,23 0,2 2,0 0,-2 -2,0 z m 3,0 0,2 2,0 0,-2 -2,0 z m 3,0 0,2 2,0 0,-2 -2,0 z"
       style="fill:#00537d;fill-opacity:0.49803922;stroke:none" />
  </g>
  <path
     id="path3856"
     d="M 11 14 C 7.6673514 14 5 16.667351 5 20 L 5 22 C 5 25.332649 7.6673514 28 11 28 L 24 28 C 24.259481 28 24.513076 27.972397 24.78125 27.9375 L 25.0625 27.90625 L 25.25 28.125 C 26.306448 29.490618 28.212771 29.91877 29.75 29.03125 C 29.849569 28.973764 29.93882 28.88496 30.03125 28.8125 C 29.317927 28.296324 28.600709 27.729911 28.0625 27 L 27.8125 26.65625 L 28.125 26.34375 C 29.277198 25.25082 30 23.722169 30 22 L 30 20 C 30 16.667351 27.332649 14 24 14 L 11 14 z "
     style="fill:none;fill-opacity:1;stroke:url(#linearGradient3868);stroke-width:2;stroke-opacity:0.49803922000000000;stroke-miterlimit:4;stroke-dasharray:none"
     clip-path="url(#clipPath3858)" />
</svg>

<svg xmlns="http://www.w3.org/2000/svg" xmlns:xlink="http://www.w3.org/1999/xlink" viewBox="0 0 32 32"><defs><linearGradient id="a"><stop offset="0"/><stop offset="1" stop-opacity="0"/></linearGradient><linearGradient id="d"><stop offset="0" stop-color="#cdf87e"/><stop offset=".262" stop-color="#a2e34f"/><stop offset=".661" stop-color="#68b723"/><stop offset="1" stop-color="#1d7e0d"/></linearGradient><linearGradient id="c"><stop offset="0" stop-color="#fff"/><stop offset=".333" stop-color="#fff" stop-opacity=".235"/><stop offset=".951" stop-color="#fff" stop-opacity=".157"/><stop offset="1" stop-color="#fff" stop-opacity=".392"/></linearGradient><radialGradient xlink:href="#a" id="h" cx="26" cy="38" fx="26" fy="38" r="18" gradientTransform="matrix(1 0 0 .33333 0 25.333)" gradientUnits="userSpaceOnUse"/><linearGradient id="b"><stop offset="0" stop-color="#90dbec"/><stop offset=".262" stop-color="#42baea"/><stop offset=".705" stop-color="#3689e6"/><stop offset="1" stop-color="#2b63a0"/></linearGradient><radialGradient xlink:href="#b" id="i" cx="18" cy="9.188" fx="18" fy="9.188" r="13.5" gradientTransform="matrix(-4.07407 .07407 -.07272 -3.99934 92 49.41)" gradientUnits="userSpaceOnUse"/><clipPath id="f"><path d="M11 14c-3.333 0-6 2.667-6 6v2c0 3.333 2.667 6 6 6h13c.26 0 .513-.028.78-.063l.282-.03.188.218c1.056 1.366 2.963 1.794 4.5.906.1-.055.19-.144.28-.217-.712-.516-1.43-1.082-1.968-1.812l-.25-.343.313-.312A5.95 5.95 0 0 0 30 22v-2c0-3.333-2.667-6-6-6H11z" fill="#8c8c8c"/></clipPath><linearGradient xlink:href="#c" id="j" x1="18" y1="14" x2="18" y2="28" gradientUnits="userSpaceOnUse"/><radialGradient xlink:href="#d" id="e" gradientUnits="userSpaceOnUse" gradientTransform="matrix(4.07407 .07407 .07272 -3.99934 -60 38.41)" cx="18" cy="9.188" fx="18" fy="9.188" r="13.5"/><linearGradient xlink:href="#c" id="g" gradientUnits="userSpaceOnUse" x1="18" y1="14" x2="18" y2="28"/></defs><path d="M21 2.5c3.6 0 6.5 2.9 6.5 6.5v2c0 3.6-2.9 6.5-6.5 6.5H8c-.29 0-.564-.026-.843-.063C5.95 18.997 3.754 19.482 2 18.47a3.918 3.918 0 0 1-.78-.626 8.122 8.122 0 0 0 2.31-2.124A6.484 6.484 0 0 1 1.5 11V9c0-3.6 2.9-6.5 6.5-6.5h13z" fill="url(#e)" stroke="#067d00" stroke-opacity=".498"/><path clip-path="url(#f)" d="M11 14c-3.333 0-6 2.667-6 6v2c0 3.333 2.667 6 6 6h13c.26 0 .513-.028.78-.063l.282-.03.188.218c1.056 1.366 2.963 1.794 4.5.906.1-.055.19-.144.28-.217-.712-.516-1.43-1.082-1.968-1.812l-.25-.343.313-.312A5.95 5.95 0 0 0 30 22v-2c0-3.333-2.667-6-6-6H11z" transform="matrix(-1 0 0 1 32 -11)" fill="none" stroke="url(#g)" stroke-width="2" stroke-opacity=".498"/><path d="M44 38a18 6 0 1 1-36 0 18 6 0 1 1 36 0z" transform="matrix(.72222 0 0 .66667 -.778 2.667)" opacity=".2" fill="url(#h)"/><path d="M11 13.5c-3.6 0-6.5 2.9-6.5 6.5v2c0 3.6 2.9 6.5 6.5 6.5h13c.29 0 .564-.026.844-.063 1.205 1.56 3.402 2.044 5.156 1.032.3-.175.545-.396.78-.627a8.122 8.122 0 0 1-2.31-2.125A6.484 6.484 0 0 0 30.5 22v-2c0-3.6-2.9-6.5-6.5-6.5H11z" fill="url(#i)" stroke="#00537d" stroke-opacity=".498"/><g fill-opacity=".498"><path d="M9 24v2h2v-2H9zm3 0v2h2v-2h-2zm3 0v2h2v-2h-2z" opacity=".4" fill="#fff"/><path d="M9 23v2h2v-2H9zm3 0v2h2v-2h-2zm3 0v2h2v-2h-2z" fill="#00537d"/></g><path d="M11 14c-3.333 0-6 2.667-6 6v2c0 3.333 2.667 6 6 6h13c.26 0 .513-.028.78-.063l.282-.03.188.218c1.056 1.366 2.963 1.794 4.5.906.1-.055.19-.144.28-.217-.712-.516-1.43-1.082-1.968-1.812l-.25-.343.313-.312A5.95 5.95 0 0 0 30 22v-2c0-3.333-2.667-6-6-6H11z" clip-path="url(#f)" fill="none" stroke="url(#j)" stroke-width="2" stroke-opacity=".498"/></svg>
